img/icons/communication/keypad.svg

<svg xmlns="http://www.w3.org/2000/svg" viewBox="0 0 44 44"><path d="M6 0a6 6 0 106 6 6 6 0 00-6-6zm0 10a4 4 0 114-4 4 4 0 01-4 4zm0 6a6 6 0 106 6 6 6 0 00-6-6zm0 10a4 4 0 114-4 4 4 0 01-4 4zM22 0a6 6 0 106 6 6 6 0 00-6-6zm0 10a4 4 0 114-4 4 4 0 01-4 4zm0 6a6 6 0 106 6 6 6 0 00-6-6zm0 10a4 4 0 114-4 4 4 0 01-4 4zm0 6a6 6 0 106 6 6 6 0 00-6-6zm0 10a4 4 0 114-4 4 4 0 01-4 4zm16-30a6 6 0 10-6-6 6 6 0 006 6zm0-10a4 4 0 11-4 4 4 4 0 014-4zm0 14a6 6 0 106 6 6 6 0 00-6-6zm0 10a4 4 0 114-4 4 4 0 01-4 4zM6 32a6 6 0 106 6 6 6 0 00-6-6zm0 10a4 4 0 114-4 4 4 0 01-4 4zm32-10a6 6 0 106 6 6 6 0 00-6-6zm0 10a4 4 0 114-4 4 4 0 01-4 4z" fill="#231f20" data-name="Layer 2"/></svg>

<svg xmlns="http://www.w3.org/2000/svg" viewBox="0 0 44 44"><defs><style>.cls-1{fill:#231f20;}</style></defs><title>Keypad</title><g id="Layer_2" data-name="Layer 2"><g id="Icons"><g id="Communication"><g id="Keypad"><path class="cls-1" d="M6,0a6,6,0,1,0,6,6A6,6,0,0,0,6,0ZM6,10a4,4,0,1,1,4-4A4,4,0,0,1,6,10Z"/><path class="cls-1" d="M6,16a6,6,0,1,0,6,6A6,6,0,0,0,6,16ZM6,26a4,4,0,1,1,4-4A4,4,0,0,1,6,26Z"/><path class="cls-1" d="M22,0a6,6,0,1,0,6,6A6,6,0,0,0,22,0Zm0,10a4,4,0,1,1,4-4A4,4,0,0,1,22,10Z"/><path class="cls-1" d="M22,16a6,6,0,1,0,6,6A6,6,0,0,0,22,16Zm0,10a4,4,0,1,1,4-4A4,4,0,0,1,22,26Z"/><path class="cls-1" d="M22,32a6,6,0,1,0,6,6A6,6,0,0,0,22,32Zm0,10a4,4,0,1,1,4-4A4,4,0,0,1,22,42Z"/><path class="cls-1" d="M38,12a6,6,0,1,0-6-6A6,6,0,0,0,38,12ZM38,2a4,4,0,1,1-4,4A4,4,0,0,1,38,2Z"/><path class="cls-1" d="M38,16a6,6,0,1,0,6,6A6,6,0,0,0,38,16Zm0,10a4,4,0,1,1,4-4A4,4,0,0,1,38,26Z"/><path class="cls-1" d="M6,32a6,6,0,1,0,6,6A6,6,0,0,0,6,32ZM6,42a4,4,0,1,1,4-4A4,4,0,0,1,6,42Z"/><path class="cls-1" d="M38,32a6,6,0,1,0,6,6A6,6,0,0,0,38,32Zm0,10a4,4,0,1,1,4-4A4,4,0,0,1,38,42Z"/></g></g></g></g></svg>
